X: 277
T: Terry Teahan
M: 4/4
L: 1/4
R: reel
K: C
|: c d/c/ A G | A/B/ c d e | g a/g/ f d | d c A G |
c d/c/ A G | A/B/ c d e | g a/g/ f d | d c c2 :|
|: g2 g ^f/g/ | a g e c  | d/f/ g d>e | d c A G |
g2 g ^f/g/ | a g e c  | d/f/ g d>e | d c c2 :|
